X:1
T:Cuvil, 76.76 D
T:Cuvil, 76.76 D
T:David’s Harp, 1842
T:Public Domain Courtesy of the Cyber Hymnal™
C:David’s Harp, 1842
Z:Public Domain
Z:Courtesy of the Cyber Hymnal™
%%score ( 1 2 ) 3
L:1/8
Q:1/4=80
M:2/4
K:D
V:1 treble 
V:2 treble 
V:3 bass 
V:1
 ([DF]/[EG]/) | [FA][FA] [EA][EA] | [Dd]2 [DF][DF] | [CE][CE] [CG][EG] | ([EG]2 [DF])[CE] | %5
 [DF][FA] [EA][EA] | [Dd]2 [DB][D^G] | [EA][EB] [Ec][DB] | [CA]2 [Ec]2 | [Dd][DA] [CG][DF] | %10
 [DB][DA] z [Dc] | [Dd][DA] [CG][DF] | ([DF][CE]) z [CE] | [DF]>[EG] [FA][FA] | %14
 [GB]>[Ac] !fermata![Bd][GB] | [FA]>[EG] [DF][CE] | D3 |] %17
V:2
 x | x4 | x4 | x4 | x4 | x4 | x4 | x4 | x4 | x4 | x4 | x4 | x4 | x4 | x4 | x4 | D3 |] %17
V:3
 D, | D,D, C,C, | B,,2 A,,A,, | G,,G,, A,,A,, | D,3 A,, | D,D, C,C, | B,,2 E,D, | C,D, E,E, | %8
 A,,2 G,2 | F,F, E,D, | G,F, z G, | F,F, E,D, | (A,,A,,) z A,, | D,>D, D,D, | G,2 !fermata!G,G,, | %15
 A,,>A,, A,,A,, | D,3 |] %17

